X: 288
T: The Old Cloak
B: O'Neill's 288
N: "Very slow"
N: "Collected by J.O'Neill"
Z: 1997 by John Chambers <jc@trillian.mit.edu>
M: 3/4
L: 1/8
K:Gm
A \
|.B.c .B3 .d|cB .A2 z.A|GA .G2 z.A|FE .D2 z.A|
|Bc .B3 .d|cB BA2 zdc|BA .G3 .G|FA G2 z :|
||A \
|BF .F2 z.E|DF .F2 z.F|DG .G3 .A|Bc c.d2 z.c|
|.B.B .B3 .B|cd ""gf2 zd|df ""g2 dc|BA G2 z :|
